X: 161161
T: Peacock's Feather
S: "Johnny O'Leary of Sliabh Luachra" (#125)
Z: B.Black
L: 1/8
M: 6/8
R: jig
K: D
AFA DFE|DEF A2d|BGG gGG|BGG BAd|
AF/G/A DFE|DEF A2B|def gfe|fdB BAB :|
A2d fdd|edd fdd|Add fdd|edB BAF|
A2d fdf|ede fdd|f/g/af g2e|fdB BGE :|
